8/img/small-icons/mail.svg

<svg width="18" height="18" fill="none" xmlns="http://www.w3.org/2000/svg"><path d="M9 11c-.3 0-.5-.1-1-.3L1 7v7c0 .5.5 1 1 1h14c.5 0 1-.5 1-1V7l-7 3.7c-.5.2-.7.3-1 .3Zm7-8H2c-.5 0-1 .5-1 1v.8L9 9l8-4.2V4c0-.5-.5-1-1-1Z" fill="#000"/></svg>

<svg width="18" height="18" viewBox="0 0 18 18" fill="none" xmlns="http://www.w3.org/2000/svg">
<path d="M9 11C8.7 11 8.5 10.9 8 10.7L1 7V14C1 14.5 1.5 15 2 15H16C16.5 15 17 14.5 17 14V7L10 10.7C9.5 10.9 9.3 11 9 11ZM16 3H2C1.5 3 1 3.5 1 4V4.8L9 9L17 4.8V4C17 3.5 16.5 3 16 3Z" fill="black"/>
</svg>
